X: 1
T: Eddie Duffy's
M: 4/4
L: 1/8
R: barndance
K: Gmaj
ga|b2ba g2ge|dBGA B2BA|GABc defg|agfe d2Bd|
gaba g2ge|dBGA B2BA|Ggfe dcBA|(3GAG FA G2:||
Bd|e2e2 d2dB|GAGE G2 (3DEF|GABc defg|agfe d2Bd|
edge dedB|GAGE G2 (3DEF|GABc defg|a2d2 gf|| 
ga|b2ba g2ge|dBGA B2BA|GABc defg|agfe d2Bd|
gaba g2ge|dBGA B2BA|Ggfe dcBA|(3GAG FA G2||
